<?xml version="1.0" encoding="UTF-8"?>
<map version="1.10" tiledversion="1.12.2" orientation="orthogonal" renderorder="right-down" width="30" height="20" tilewidth="64" tileheight="64" infinite="0" nextlayerid="2" nextobjectid="1">
 <tileset firstgid="1" name="TESTICON" tilewidth="64" tileheight="64" tilecount="1024" columns="32">
  <image source="../source/Untitled_Artwork.png" width="2048" height="2048"/>
 </tileset>
 <layer id="1" name="Background" width="30" height="20">
  <data encoding="csv">
140,141,142,143,144,145,146,147,148,149,150,151,152,153,154,385,386,387,388,389,390,391,392,393,394,395,396,397,398,399,
172,173,174,175,176,177,178,179,180,181,182,183,184,185,186,417,418,419,420,421,422,423,424,425,426,427,428,429,430,431,
204,205,206,207,208,209,210,211,212,213,214,215,216,217,218,449,450,451,452,453,454,455,456,457,458,459,460,461,462,463,
236,237,238,239,240,241,242,243,244,245,246,247,248,249,250,481,482,483,484,485,486,487,488,489,490,491,492,493,494,495,
268,269,270,271,272,273,274,275,276,277,278,279,280,281,282,513,514,515,516,517,518,519,520,521,522,523,524,525,526,527,
300,301,302,303,304,305,306,307,308,309,310,311,312,313,314,545,546,547,548,549,550,551,552,553,554,555,556,557,558,559,
332,333,334,335,336,337,338,339,340,341,342,343,344,345,346,577,578,579,580,581,582,583,584,585,586,587,588,589,590,591,
364,365,366,367,368,369,370,371,372,373,374,375,376,377,378,609,610,611,612,613,614,615,616,617,618,619,620,621,622,623,
396,397,398,399,400,401,402,403,404,405,406,407,408,409,410,641,642,643,644,645,646,647,648,649,650,651,652,653,654,655,
428,429,430,431,432,433,434,435,436,437,438,439,440,441,442,673,674,675,676,677,678,679,680,681,682,683,684,685,686,687,
460,461,462,463,464,465,466,467,468,469,470,471,472,473,474,705,706,707,708,709,710,711,712,713,714,715,716,717,718,719,
492,493,494,495,496,497,498,499,500,501,502,503,504,505,506,737,738,739,740,741,742,743,744,745,746,747,748,749,750,751,
524,525,526,527,528,529,530,531,532,533,534,535,536,537,538,769,770,771,772,773,774,775,776,777,778,779,780,781,782,783,
556,557,558,559,560,561,562,563,564,565,566,567,568,569,570,801,802,803,804,805,806,807,808,809,810,811,812,813,814,815,
588,589,590,591,592,593,594,595,596,597,598,599,600,601,602,833,834,835,836,837,838,839,840,841,842,843,844,845,846,847,
620,621,622,623,624,625,626,627,628,629,630,631,632,633,634,865,866,867,868,869,870,871,872,873,874,875,876,877,878,879,
652,653,654,655,656,657,658,659,660,661,662,663,664,665,666,897,898,899,900,901,902,903,904,905,906,907,908,909,910,911,
684,685,686,687,688,689,690,691,692,693,694,695,696,697,698,929,930,931,932,933,934,935,936,937,938,939,940,941,942,943,
716,717,718,719,720,721,722,723,724,725,726,727,728,729,730,961,962,963,964,965,966,967,968,969,970,971,972,973,974,975,
748,749,750,751,752,753,754,755,756,757,758,759,760,761,762,993,994,995,996,997,998,999,1000,1001,1002,1003,1004,1005,1006,1007
</data>
 </layer>
</map>
